X:1
T:Mr James Bennet's Reel
T:Mr James Bennet's Reel
T:William Marshall
C:William Marshall
%%score { 1 2 }
L:1/8
M:2/2
K:G
V:1 treble 
V:2 bass 
V:1
 (Tgfg)!wedge!d{f} e2 (dc) | BGAB A/A/A A2 | (Tgfg)!wedge!d{f} e2 (dc) | BGAc G/G/G G2 :: %4
 BGdG eGdG | BGAB A/A/A A2 | BGdG eGdG | BGAB G/G/G G2 :: (Tgfg)!wedge!d e2 (ab) | c'ba^g a2 (ab) | %10
 c'bag e2 (dg) | BGAB G/G/G G2 :: (TBAG)!wedge!B dgdB | cedB A/A/A (Ac) |1 (BAG)!wedge!B dgdB | %15
 cedB G/G/G (Gc) :|2 BGcA dBec | gedB G/G/G G2 |] %18
V:2
 [G,,G,]2 [G,,G,]2 [G,,C,G,]2 [G,,B,,G,]2 | [G,,G,]2 [G,,G,]2 [D,,D,]2 [D,,D,]2 | %2
 [G,,G,]2 [G,,G,]2 [G,,C,G,]2 [G,,G,B,]2 | D,2 D,,2 [G,,G,]2 [G,,G,]2 :: %4
 [G,,G,]2 [G,B,]2 [G,C]2 [G,B,]2 | [G,B,D]2 [G,B,D]2 [D,,D,]2 [D,,D,]2 | %6
 [G,,G,]2 [G,B,]2 [G,C]2 [G,B,]2 | [G,D]2 [G,CD]2 [G,B,D]2 [G,B,D]2 :: %8
 [G,,G,]2 [G,,G,]2 [C,C]2 [C,C]2 | [A,,A,]2 [A,,A,]2 [A,,A,]2 [A,,A,]2 | %10
 [A,,A,]2 [B,,B,]2 [C,C]2 [B,,B,]2 | D2 D,2 [G,,G,]2 [G,,G,]2 :: %12
 [G,B,D]2 [G,B,D]2 [G,B,D]2 [G,B,D]2 | [F,D]2 [G,D]2 [D,D]2 [D,D]2 |1 %14
 [G,B,D]2 [G,B,D]2 [G,B,D]2 [G,B,D]2 | [C,C]2 [D,A,C]2 [G,,G,]2 [G,,G,]2 :|2 %16
 [G,,G,]2 [C,,C,]2 [B,,,B,,]2 [C,,C,]2 | [C,,C,]2 [D,,D,]2 [G,,,G,,]2 [G,,,G,,]2 |] %18

